X:101
T:Limehouse Blues
C:
N:TablEdited by Jim Nikora
L:1/8
Q:1/4=120
M:2/4
K:G
z4 | "Gm6"EF GE | zF2G | EF GE | z4 | "A7"EF GE | zF2G | EF GE | z4 | "G6/9"DE FG | 
zA2^A | "B7"B^A =AG | "Em7"z4 | "A7"EF G^G | zA2B | "Am7"A^G =GF | "D7"z"Db7"=F2E | 
"(C9)"EF GE | zF2G | EF GE | z4 | "A7"GA BG | zA2B | GA BG | z4 | "G6/9"d^c de | 
"E7"zd2B | "Am7"cB cA | z4 | "Am7b5"cB cd | "D7"zB2A | "G6/9"GG GG | G4 | 


